resources/haticons/SVG/linkedin1.svg

<!-- Generated by IcoMoon.io -->
<svg version="1.1" xmlns="http://www.w3.org/2000/svg" width="24" height="24" viewBox="0 0 24 24">
<title>linkedin1</title>
<path d="M18.825 23.25v-9s-0.075-2.775-2.55-2.775-2.775 3-2.775 3v8.775h-5.175v-15.6h5.175v2.175s0.975-2.625 4.575-2.625 5.925 2.025 5.925 7.050v9h-5.175zM3 5.625c-1.65 0-3-1.275-3-2.775s1.35-2.85 3-2.85 3 1.275 3 2.775-1.35 2.85-3 2.85zM5.55 23.25h-5.325v-15.6h5.325v15.6z"></path>
</svg>

<svg xmlns="http://www.w3.org/2000/svg" width="24" height="24"><path d="M18.825 23.25v-9s-.075-2.775-2.55-2.775-2.775 3-2.775 3v8.775H8.325V7.65H13.5v2.175S14.475 7.2 18.075 7.2 24 9.225 24 14.25v9h-5.175zM3 5.625c-1.65 0-3-1.275-3-2.775S1.35 0 3 0s3 1.275 3 2.775-1.35 2.85-3 2.85zM5.55 23.25H.225V7.65H5.55v15.6z"/></svg>
